X:1
T:The Love of Christ Constraineth
T:The Love of Christ Constraineth
T:Edwin C. Soley, 1911
T:Cora Berford Evans, ca. 1895
T:Public Domain Courtesy of the Cyber Hymnal™
T:Public Domain Courtesy of the Cyber Hymnal™
C:Edwin C. Soley, 1911
Z:Public Domain
Z:Courtesy of the Cyber Hymnal™
%%score ( 1 2 ) ( 3 4 )
L:1/8
Q:1/4=113
M:4/4
K:D
V:1 treble 
V:2 treble 
V:3 bass 
V:4 bass 
V:1
 [FA]2 | [Fd]2 [Fc]2 [FB]2 F2 | [EA]4 [FA]2 [FB]2 | [EG]2 [EA]2 [DF]2 [EG]2 | [CE]6 [DF]2 | %5
w: 1.~The|love of Christ con-|strain- eth; O|let the watch- word|ring Till|
w: 2.~The|love of Christ con-|strain- eth; And|we who trust His|Word, Who|
w: 3.~The|love of Christ con-|strain- eth; Then|let us work and|pray, And|
 [EG]2 [FA]2 [GB]2 [Ec]2 | d4 [Ec]2 [Dd]2 | [FB]2 [Ec]2 [DA]2 [D^G]2 | [CA]6 [FA]2 | %9
w: all the world a-|dor- ing To|Je- sus’ feet it|bring. Till|
w: know and feel its|pow- er To|glad- der ser- vice|stirred, Shall|
w: watch the glad ap-|pear- ing Of|that tri- umph- al|day, When|
 [FB]2 [^DA]2 [EG]2 F2 | [EG]4 [EG]2 [E^G]2 | [EA]2 [CE]2 [DF]2 [EG]2 | [DF]6 [FA]2 | %13
w: north and south the|king- doms Shall|own His glor- ious|sway, And|
w: nei- ther faint nor|fal- ter, Though|dark the night and|long, And|
w: Fa- ther, Son and|Spir- it, By|ev- ery tongue con-|fessed, All|
 [Fd]2 [Fc]2 [FB]2 F2 | ([FB]2 [^DA]2) [EG]2 [^EB]2 | [FA]2 [Fd]2 d2 [Gc]2 | [Fd]6 || %17
w: east and west the|na- * tions Re-|joice to see His|day.|
w: weak our hands that|la- * bor; His|strength shall make us|strong.|
w: earth his broad do-|min- * ion In|His dear love shall|rest.|
"^Refrain" [FA]2 | [Fd]2 [Fc]2 [FB]2 F2 | [CA]4 [DA]2 [EA]2 | [FB]2 [Fc]2 [Fd]2 [^Ge]2 | %21
w: ||||
w: The|love of Christ con-|strain- eth; O|let the watch- word|
w: ||||
 (e4 A2) [GA]2 | [Fd]2 [Fc]2 [FB]2 F2 | ([EG]2 [DA]2) [DB]2 [=FB]2 | [FA]2 [Fd]2 d2 [Gc]2 | %25
w: ||||
w: ring, * Till|all the world a-|dor- * ing To|Je- sus’ feet it|
w: ||||
 [Fd]6 |] %26
w: |
w: bring.|
w: |
V:2
 x2 | x6 F2 | x8 | x8 | x8 | x8 | (D2 E2) x4 | x8 | x8 | x6 F2 | x8 | x8 | x8 | x6 F2 | x8 | %15
 x4 (EF) x2 | x6 || x2 | x6 F2 | x8 | x8 | G6 x2 | x6 F2 | x8 | x4 (EF) x2 | x6 |] %26
V:3
 [D,A,]2 | [D,A,]2 [D,A,]2 [D,A,]2 [D,A,]2 | [C,A,]4 [D,A,]2 [^D,F,]2 | %3
 [E,B,]2 [C,A,]2 [D,A,]2 [G,,B,]2 | [A,,A,]6 [D,A,]2 | [A,,A,]2 [A,,A,]2 [A,,A,]2 [^A,,G,]2 | %6
 [B,,F,]2 [E,^G,]2 [A,,A,]2 [F,A,]2 | [D,A,]2 [E,^G,]2 [=F,B,]2 [E,B,]2 | [A,,A,]6 [D,A,]2 | %9
 [^D,F,]2 [B,,B,]2 [E,B,]2 [D,B,]2 | [E,B,]4 [E,B,]2 [D,B,]2 | [C,E,]2 [A,,A,]2 [D,A,]2 [C,A,]2 | %12
 [D,A,]6 [D,A,]2 | [D,A,]2 [D,^A,]2 [D,B,]2 [D,=C]2 | B,4 [E,B,]2 [^G,,^D]2 | %15
 [A,,D]2 [A,,A,]2 [A,,A,]2 [A,,A,]2 | [D,A,]6 || [D,A,]2 | [D,A,]2 [A,,A,]2 [D,A,]2 [A,,A,]2 | %19
 A,4 [B,,A,]2 [C,A,]2 | [D,A,]2 [C,A,]2 [B,,B,]2 [_B,,D]2 | ([A,,C]2 [B,,D]2 [C,E]2) [A,,C]2 | %22
 [B,,D]2 [C,^A,]2 [D,B,]2 [^D,B,]2 | ([E,B,]2 [F,=C]2) [G,B,]2 [^G,D]2 | %24
 [A,D]2 A,2 [A,,A,]2 [A,,A,]2 | [D,A,]6 |] %26
V:4
 x2 | x8 | x8 | x8 | x8 | x8 | x8 | x8 | x8 | x8 | x8 | x8 | x8 | x8 | (^D,2 B,,2) x4 | x8 | x6 || %17
 x2 | x8 | (E,2 A,,2) x4 | x8 | x8 | x8 | x8 | x2 A,2 x4 | x6 |] %26

